X:44
T: Zhenzhu dao juan lian
N: C1542
O: China,Heilongjiang, Hejiang
S: III, 55]
R: Xiaodiao, Shuogu tanjin]
M: 2/4
L: 1/16
K: G
G2GB,D2D2 | G2EGA4 | d2ged4 | d2EGAAdBA4
A^GABd2d2 | EGABG2G2 | A2d2BdEG | A2GEDDDED4
AAG2G4 | A2A2G4 |
A2A2d2d2 | A2E2G4 |
z2A2d2BA | A2A2G4 |
z2A2^G2A2 | d3BA4 |
z2G2E2B2 | A2d2F2E2 | z2EGB2d2 | B3AA2G2

@@@ Tune index: 6599
